flaticon/gastronomy/bread.svg

<svg xmlns="http://www.w3.org/2000/svg" width="32" height="32" viewBox="0 0 24 24">
    <path d="M7.832031 18.117188C7.671875 17.957031 7.40625 17.957031 7.246094 18.117188 6.882812 18.480469 6.289062 18.480469 5.925781 18.117188 5.238281 17.429688 4.113281 17.429688 3.425781 18.117188 3.265625 18.28125 3.265625 18.542969 3.425781 18.707031 3.589844 18.867188 3.851562 18.867188 4.015625 18.707031 4.378906 18.34375 4.972656 18.34375 5.335938 18.707031 5.679688 19.050781 6.132812 19.222656 6.585938 19.222656 7.035156 19.222656 7.488281 19.050781 7.832031 18.707031 7.996094 18.542969 7.996094 18.28125 7.832031 18.117188zM6.558594 16.160156C6.914062 15.808594 7.527344 15.808594 7.882812 16.160156 8.226562 16.503906 8.675781 16.675781 9.128906 16.675781 9.582031 16.675781 10.035156 16.503906 10.378906 16.160156 10.539062 16 10.539062 15.734375 10.378906 15.574219 10.214844 15.410156 9.953125 15.410156 9.789062 15.574219 9.425781 15.9375 8.832031 15.9375 8.46875 15.574219 8.136719 15.238281 7.691406 15.054688 7.222656 15.054688 6.75 15.054688 6.304688 15.238281 5.972656 15.574219 5.808594 15.734375 5.808594 16 5.972656 16.160156 6.136719 16.324219 6.398438 16.324219 6.558594 16.160156zM9.105469 13.617188C9.46875 13.253906 10.0625 13.253906 10.425781 13.617188 10.769531 13.960938 11.222656 14.132812 11.675781 14.132812 12.128906 14.132812 12.578125 13.960938 12.921875 13.617188 13.085938 13.453125 13.085938 13.191406 12.921875 13.027344 12.761719 12.867188 12.496094 12.867188 12.335938 13.027344 11.972656 13.390625 11.378906 13.390625 11.015625 13.027344 10.328125 12.339844 9.207031 12.339844 8.519531 13.027344 8.355469 13.191406 8.355469 13.453125 8.519531 13.617188 8.679688 13.777344 8.941406 13.777344 9.105469 13.617188zM11.652344 11.070312C12.015625 10.707031 12.605469 10.707031 12.972656 11.070312 13.316406 11.414062 13.769531 11.585938 14.21875 11.585938 14.671875 11.585938 15.125 11.414062 15.46875 11.070312 15.628906 10.90625 15.628906 10.644531 15.46875 10.484375 15.304688 10.320312 15.042969 10.320312 14.878906 10.484375 14.515625 10.847656 13.921875 10.847656 13.558594 10.484375 12.871094 9.792969 11.75 9.792969 11.0625 10.484375 10.898438 10.644531 10.898438 10.90625 11.0625 11.070312 11.226562 11.234375 11.488281 11.234375 11.652344 11.070312zM14.195312 8.527344C14.558594 8.160156 15.152344 8.160156 15.515625 8.527344 15.851562 8.859375 16.292969 9.042969 16.765625 9.042969 17.238281 9.042969 17.679688 8.859375 18.011719 8.527344 18.175781 8.363281 18.175781 8.101562 18.011719 7.9375 17.851562 7.773438 17.585938 7.773438 17.425781 7.9375 17.070312 8.292969 16.457031 8.289062 16.105469 7.9375 15.417969 7.25 14.296875 7.25 13.609375 7.9375 13.445312 8.101562 13.445312 8.363281 13.609375 8.527344 13.769531 8.6875 14.03125 8.6875 14.195312 8.527344zM10.339844 5.074219C10.644531 4.769531 11.132812 4.769531 11.4375 5.074219 11.75 5.386719 12.160156 5.542969 12.574219 5.542969 12.984375 5.542969 13.394531 5.386719 13.707031 5.074219 13.871094 4.910156 13.871094 4.648438 13.707031 4.484375 13.546875 4.320312 13.28125 4.320312 13.121094 4.484375 12.816406 4.785156 12.328125 4.785156 12.023438 4.484375 11.398438 3.859375 10.378906 3.859375 9.753906 4.484375 9.589844 4.648438 9.589844 4.910156 9.753906 5.074219 9.914062 5.234375 10.179688 5.234375 10.339844 5.074219zM7.839844 8.066406C8.152344 8.378906 8.5625 8.535156 8.972656 8.535156 9.386719 8.535156 9.796875 8.378906 10.109375 8.066406 10.273438 7.90625 10.273438 7.640625 10.109375 7.480469 9.945312 7.316406 9.683594 7.316406 9.523438 7.480469 9.21875 7.78125 8.726562 7.78125 8.425781 7.480469 7.800781 6.851562 6.78125 6.851562 6.152344 7.480469 5.992188 7.640625 5.992188 7.902344 6.152344 8.066406 6.316406 8.230469 6.578125 8.230469 6.742188 8.066406 7.042969 7.765625 7.535156 7.765625 7.839844 8.066406zM14.015625 18.722656C13.714844 19.023438 13.222656 19.023438 12.921875 18.722656 12.292969 18.09375 11.273438 18.09375 10.648438 18.722656 10.484375 18.882812 10.484375 19.148438 10.648438 19.308594 10.8125 19.472656 11.074219 19.472656 11.234375 19.308594 11.539062 19.007812 12.03125 19.007812 12.332031 19.308594 12.644531 19.621094 13.054688 19.78125 13.46875 19.78125 13.878906 19.78125 14.289062 19.621094 14.605469 19.308594 14.765625 19.148438 14.765625 18.882812 14.605469 18.722656 14.441406 18.558594 14.179688 18.558594 14.015625 18.722656zM16.742188 5.980469C17.015625 5.703125 17.464844 5.703125 17.742188 5.980469 18.035156 6.273438 18.421875 6.433594 18.832031 6.433594 19.242188 6.433594 19.628906 6.273438 19.921875 5.980469 20.085938 5.816406 20.085938 5.554688 19.921875 5.394531 19.757812 5.230469 19.496094 5.230469 19.332031 5.394531 19.066406 5.660156 18.597656 5.660156 18.332031 5.394531 17.730469 4.792969 16.753906 4.792969 16.152344 5.394531 15.988281 5.554688 15.988281 5.816406 16.152344 5.980469 16.316406 6.144531 16.578125 6.144531 16.742188 5.980469zM16.742188 5.980469"/>
    <path d="M 23.765625 8.722656 C 23.621094 8.066406 23.167969 7.554688 22.425781 7.203125 C 22.058594 6.902344 21.480469 6.984375 20.589844 7.472656 C 20.910156 6.945312 21.214844 6.414062 21.496094 5.878906 C 21.917969 5.078125 22.058594 3.796875 21.507812 2.902344 C 21.246094 2.476562 20.710938 1.976562 19.707031 1.992188 C 18.636719 2.011719 17.441406 2.683594 16.308594 3.488281 C 16.351562 3.410156 16.398438 3.332031 16.4375 3.25 C 16.789062 2.585938 16.902344 1.515625 16.445312 0.769531 C 16.128906 0.261719 15.582031 0.00390625 14.921875 0 C 13.589844 0.0234375 12.039062 1.257812 10.792969 2.25 C 10.472656 2.507812 10.167969 2.75 9.914062 2.929688 C 7.621094 4.570312 5.484375 6.671875 3.734375 9.007812 C 3.546875 9.257812 3.28125 9.570312 2.96875 9.9375 C 1.65625 11.480469 -0.140625 13.59375 0.234375 15.277344 C 0.378906 15.933594 0.832031 16.445312 1.574219 16.796875 C 1.71875 16.914062 1.894531 16.976562 2.109375 16.976562 C 2.351562 16.976562 2.648438 16.894531 3.003906 16.734375 C 2.035156 18.109375 1.316406 19.566406 1.59375 20.8125 C 1.769531 21.597656 2.3125 22.207031 3.214844 22.636719 C 3.339844 22.734375 3.535156 22.832031 3.828125 22.832031 C 3.832031 22.832031 3.839844 22.832031 3.84375 22.832031 C 4.625 22.820312 5.96875 22.03125 7.484375 20.917969 C 7.199219 21.585938 7.132812 22.539062 7.554688 23.226562 C 7.863281 23.726562 8.386719 24 9.035156 24 C 9.046875 24 9.0625 24 9.078125 24 C 10.410156 23.976562 11.960938 22.742188 13.207031 21.75 C 13.527344 21.492188 13.832031 21.25 14.085938 21.070312 C 16.378906 19.429688 18.515625 17.328125 20.265625 14.992188 C 20.453125 14.742188 20.71875 14.425781 21.03125 14.0625 C 22.34375 12.519531 24.140625 10.40625 23.765625 8.722656 Z M 4.496094 14.828125 C 2.539062 16.257812 2.09375 16.140625 2.101562 16.152344 L 2.046875 16.101562 L 1.980469 16.070312 C 1.441406 15.824219 1.136719 15.507812 1.046875 15.097656 C 0.816406 14.070312 1.878906 12.566406 2.890625 11.324219 C 2.878906 11.445312 2.910156 11.574219 3.003906 11.667969 C 3.167969 11.828125 3.429688 11.828125 3.59375 11.667969 C 3.886719 11.371094 4.394531 11.375 4.6875 11.667969 C 5.003906 11.980469 5.414062 12.136719 5.824219 12.136719 C 6.234375 12.136719 6.648438 11.980469 6.960938 11.667969 C 7.121094 11.503906 7.121094 11.242188 6.960938 11.078125 C 6.796875 10.914062 6.535156 10.914062 6.371094 11.078125 C 6.070312 11.378906 5.578125 11.382812 5.277344 11.078125 C 4.75 10.550781 3.886719 10.484375 3.269531 10.871094 C 3.382812 10.734375 3.496094 10.601562 3.605469 10.476562 C 3.921875 10.101562 4.199219 9.777344 4.402344 9.503906 C 6.101562 7.238281 8.171875 5.195312 10.398438 3.605469 C 10.667969 3.414062 10.980469 3.164062 11.3125 2.902344 C 12.398438 2.035156 13.886719 0.851562 14.9375 0.832031 C 14.949219 0.832031 14.957031 0.832031 14.96875 0.832031 C 15.328125 0.832031 15.582031 0.953125 15.738281 1.207031 C 16.015625 1.660156 15.9375 2.421875 15.703125 2.863281 C 15.359375 3.519531 14.96875 4.175781 14.515625 4.867188 C 14.492188 4.886719 14.472656 4.902344 14.449219 4.917969 C 14.398438 4.957031 14.351562 4.996094 14.304688 5.035156 C 14.257812 5.074219 14.207031 5.109375 14.160156 5.148438 C 14.121094 5.179688 14.082031 5.210938 14.042969 5.238281 C 13.976562 5.289062 13.917969 5.335938 13.855469 5.382812 C 13.835938 5.398438 13.8125 5.417969 13.792969 5.429688 C 13.710938 5.492188 13.628906 5.550781 13.554688 5.605469 C 10.71875 7.632812 8.078125 10.230469 5.917969 13.117188 C 5.753906 13.335938 5.542969 13.589844 5.304688 13.875 C 5.195312 14.003906 5.082031 14.136719 4.964844 14.273438 C 4.828125 14.4375 4.683594 14.605469 4.539062 14.777344 C 4.523438 14.796875 4.511719 14.8125 4.496094 14.828125 Z M 3.738281 21.988281 L 3.683594 21.9375 L 3.617188 21.90625 C 2.921875 21.585938 2.523438 21.171875 2.40625 20.632812 C 2.078125 19.164062 3.765625 16.992188 5.140625 15.355469 C 5.28125 15.1875 5.417969 15.027344 5.550781 14.871094 C 5.566406 14.851562 5.582031 14.832031 5.597656 14.816406 C 5.992188 14.351562 6.332031 13.953125 6.582031 13.617188 C 7.109375 12.914062 7.667969 12.226562 8.25 11.558594 C 9.996094 9.5625 11.964844 7.765625 14.039062 6.285156 C 14.117188 6.226562 14.203125 6.164062 14.289062 6.101562 C 14.320312 6.078125 14.351562 6.050781 14.382812 6.027344 C 14.4375 5.984375 14.492188 5.945312 14.546875 5.902344 C 14.59375 5.863281 14.644531 5.828125 14.691406 5.789062 C 14.738281 5.75 14.789062 5.710938 14.839844 5.671875 C 14.875 5.644531 14.910156 5.617188 14.945312 5.589844 C 14.992188 5.550781 15.035156 5.515625 15.082031 5.480469 L 15.085938 5.476562 C 15.113281 5.457031 15.140625 5.433594 15.167969 5.410156 C 16.527344 4.332031 18.386719 2.847656 19.722656 2.824219 C 20.242188 2.8125 20.582031 2.984375 20.800781 3.339844 C 21.164062 3.929688 21.0625 4.917969 20.761719 5.492188 C 20.171875 6.613281 19.484375 7.722656 18.71875 8.816406 L 18.714844 8.816406 C 18.46875 9.167969 18.210938 9.519531 17.945312 9.867188 C 17.945312 9.871094 17.941406 9.875 17.9375 9.878906 C 17.6875 10.207031 17.425781 10.535156 17.160156 10.859375 C 17.140625 10.886719 17.121094 10.910156 17.101562 10.9375 C 16.855469 11.234375 16.605469 11.527344 16.347656 11.820312 C 16.308594 11.867188 16.269531 11.914062 16.226562 11.957031 C 15.9375 12.285156 15.640625 12.609375 15.339844 12.925781 C 15.308594 12.957031 15.265625 13.003906 15.210938 13.058594 C 15.207031 13.0625 15.199219 13.070312 15.195312 13.074219 C 15.148438 13.121094 15.089844 13.179688 15.027344 13.238281 C 14.363281 13.894531 12.890625 15.289062 11.222656 16.761719 C 10.300781 17.578125 9.433594 18.316406 8.636719 18.964844 L 8.582031 19.007812 C 4.480469 22.332031 3.777344 22.007812 3.738281 21.988281 Z M 21.4375 12.257812 C 21.417969 12.210938 21.390625 12.167969 21.351562 12.128906 C 21.191406 11.964844 20.925781 11.964844 20.765625 12.128906 C 20.472656 12.421875 19.960938 12.421875 19.667969 12.128906 C 19.0625 11.519531 18.003906 11.519531 17.398438 12.128906 C 17.234375 12.289062 17.234375 12.554688 17.398438 12.714844 C 17.558594 12.878906 17.820312 12.878906 17.984375 12.714844 C 18.277344 12.421875 18.789062 12.421875 19.082031 12.714844 C 19.382812 13.019531 19.789062 13.1875 20.214844 13.1875 C 20.40625 13.1875 20.59375 13.148438 20.765625 13.085938 C 20.640625 13.238281 20.515625 13.386719 20.394531 13.523438 C 20.078125 13.898438 19.800781 14.222656 19.597656 14.496094 C 17.898438 16.761719 15.824219 18.804688 13.601562 20.394531 C 13.332031 20.585938 13.019531 20.835938 12.6875 21.097656 C 11.601562 21.964844 10.113281 23.148438 9.0625 23.167969 C 8.671875 23.179688 8.421875 23.050781 8.261719 22.792969 C 7.984375 22.339844 8.0625 21.578125 8.296875 21.136719 C 8.546875 20.660156 8.835938 20.164062 9.203125 19.582031 C 10.105469 18.847656 11.011719 18.066406 11.859375 17.3125 C 12.511719 16.792969 13.148438 16.242188 13.769531 15.667969 C 13.78125 15.683594 13.785156 15.699219 13.796875 15.710938 C 13.960938 15.875 14.222656 15.875 14.386719 15.710938 C 14.6875 15.410156 15.179688 15.40625 15.480469 15.710938 C 15.785156 16.015625 16.1875 16.183594 16.617188 16.183594 C 17.046875 16.183594 17.449219 16.015625 17.753906 15.710938 C 17.914062 15.546875 17.914062 15.285156 17.753906 15.121094 C 17.589844 14.960938 17.328125 14.960938 17.164062 15.121094 C 16.871094 15.414062 16.363281 15.414062 16.070312 15.121094 C 15.722656 14.777344 15.257812 14.628906 14.804688 14.664062 C 15.070312 14.398438 15.335938 14.125 15.59375 13.851562 C 15.757812 13.6875 15.878906 13.566406 15.941406 13.5 C 16.253906 13.171875 16.554688 12.84375 16.847656 12.511719 C 16.894531 12.460938 16.9375 12.40625 16.980469 12.355469 C 17.238281 12.0625 17.492188 11.765625 17.738281 11.46875 C 17.761719 11.441406 17.785156 11.410156 17.808594 11.382812 C 18.078125 11.054688 18.339844 10.722656 18.59375 10.390625 C 18.59375 10.390625 18.59375 10.386719 18.59375 10.386719 C 18.867188 10.03125 19.128906 9.671875 19.382812 9.308594 L 19.503906 9.171875 C 21.320312 7.84375 21.835938 7.855469 21.914062 7.863281 L 22.019531 7.933594 C 22.558594 8.175781 22.863281 8.492188 22.953125 8.902344 C 23.160156 9.816406 22.335938 11.109375 21.4375 12.257812 Z M 21.4375 12.257812"/>
</svg>

<svg xmlns="http://www.w3.org/2000/svg" width="32" height="32" viewBox="0 0 24 24">
    <path d="M7.832 18.117a.417.417 0 0 0-.586 0 .936.936 0 0 1-1.32 0 1.773 1.773 0 0 0-2.5 0 .422.422 0 0 0 0 .59c.164.16.426.16.59 0a.936.936 0 0 1 1.32 0c.344.344.797.516 1.25.516.45 0 .902-.172 1.246-.516a.415.415 0 0 0 0-.59zm0 0M6.559 16.16a.963.963 0 0 1 1.324 0c.344.344.793.516 1.246.516.453 0 .906-.172 1.25-.516a.415.415 0 1 0-.59-.586.936.936 0 0 1-1.32 0 1.743 1.743 0 0 0-1.246-.52c-.473 0-.918.184-1.25.52a.41.41 0 0 0 0 .586.41.41 0 0 0 .586 0zm0 0M9.105 13.617a.936.936 0 0 1 1.32 0c.345.344.798.516 1.25.516.454 0 .903-.172 1.247-.516a.415.415 0 1 0-.586-.59.936.936 0 0 1-1.32 0 1.768 1.768 0 0 0-2.496 0 .415.415 0 1 0 .585.59zm0 0M11.652 11.07a.936.936 0 0 1 1.32 0 1.76 1.76 0 0 0 1.247.516c.453 0 .906-.172 1.25-.516a.415.415 0 1 0-.59-.586.936.936 0 0 1-1.32 0 1.761 1.761 0 0 0-2.496 0 .41.41 0 0 0 0 .586.415.415 0 0 0 .59 0zm0 0M14.195 8.527a.929.929 0 0 1 1.32 0 1.765 1.765 0 0 0 2.497 0 .415.415 0 0 0 0-.59.41.41 0 0 0-.586 0 .954.954 0 0 1-1.32 0 1.768 1.768 0 0 0-2.497 0 .415.415 0 1 0 .586.59zm0 0M10.34 5.074a.773.773 0 0 1 1.098 0 1.6 1.6 0 0 0 1.136.469c.41 0 .82-.156 1.133-.469a.415.415 0 0 0 0-.59.41.41 0 0 0-.586 0 .78.78 0 0 1-1.098 0 1.608 1.608 0 0 0-2.27 0 .415.415 0 1 0 .587.59zm0 0M7.84 8.066c.312.313.723.47 1.133.47a1.6 1.6 0 0 0 1.136-.47.41.41 0 0 0 0-.586.41.41 0 0 0-.586 0 .78.78 0 0 1-1.097 0 1.606 1.606 0 0 0-2.274 0 .415.415 0 1 0 .59.586c.301-.3.793-.3 1.098 0zm0 0M14.016 18.723c-.301.3-.793.3-1.094 0a1.606 1.606 0 0 0-2.274 0 .41.41 0 0 0 0 .586.41.41 0 0 0 .586 0 .78.78 0 0 1 1.098 0 1.603 1.603 0 0 0 2.273 0 .415.415 0 1 0-.59-.586zm0 0M16.742 5.98a.705.705 0 0 1 1 0c.293.293.68.454 1.09.454.41 0 .797-.16 1.09-.454a.41.41 0 0 0 0-.585.415.415 0 0 0-.59 0 .727.727 0 0 1-1 0 1.542 1.542 0 0 0-2.18 0 .41.41 0 0 0 0 .585.415.415 0 0 0 .59 0zm0 0"/>
    <path d="M23.766 8.723c-.145-.657-.598-1.168-1.34-1.52-.367-.3-.946-.219-1.836.27.32-.528.625-1.059.906-1.594.422-.8.563-2.082.012-2.977-.262-.425-.797-.925-1.801-.91-1.07.02-2.266.692-3.398 1.496.043-.078.09-.156.128-.238.352-.664.465-1.734.008-2.48-.316-.508-.863-.766-1.523-.77-1.332.023-2.883 1.258-4.129 2.25-.32.258-.625.5-.879.68-2.293 1.64-4.43 3.742-6.18 6.078-.187.25-.453.562-.765.93-1.313 1.542-3.11 3.656-2.735 5.34.145.656.598 1.167 1.34 1.519a.82.82 0 0 0 .535.18c.243 0 .54-.082.895-.243-.969 1.375-1.688 2.832-1.41 4.078.176.786.718 1.395 1.62 1.825.126.097.321.195.614.195h.016c.781-.012 2.125-.8 3.64-1.914-.285.668-.351 1.621.07 2.309.31.5.833.773 1.481.773h.043c1.332-.023 2.883-1.258 4.129-2.25.32-.258.625-.5.879-.68 2.293-1.64 4.43-3.742 6.18-6.078.187-.25.453-.566.765-.93 1.313-1.542 3.11-3.656 2.735-5.34zm-19.27 6.105c-1.957 1.43-2.402 1.313-2.394 1.324l-.055-.05-.067-.032c-.539-.246-.843-.562-.933-.972-.23-1.028.832-2.532 1.844-3.774-.012.121.02.25.113.344.164.16.426.16.59 0a.787.787 0 0 1 1.094 0 1.613 1.613 0 0 0 2.273 0 .422.422 0 0 0 0-.59.415.415 0 0 0-.59 0c-.3.3-.793.305-1.094 0-.527-.527-1.39-.594-2.007-.207.113-.137.226-.27.335-.394.317-.375.594-.7.797-.973 1.7-2.266 3.77-4.309 5.996-5.899.27-.19.582-.44.915-.703 1.085-.867 2.574-2.05 3.624-2.07h.032c.36 0 .613.121.77.375.277.453.198 1.215-.036 1.656a23.74 23.74 0 0 1-1.187 2.004 4.69 4.69 0 0 0-.21.168c-.048.04-.099.074-.146.113-.039.032-.078.063-.117.09-.066.051-.125.098-.188.145-.02.015-.043.035-.062.047-.082.062-.164.12-.238.175-2.836 2.028-5.477 4.625-7.637 7.512-.164.219-.375.473-.613.758l-.34.398c-.137.165-.281.332-.426.504-.016.02-.027.036-.043.051zm-.758 7.16l-.054-.05-.067-.032c-.695-.32-1.094-.734-1.21-1.273-.329-1.469 1.359-3.64 2.734-5.278.14-.168.277-.328.41-.484a.68.68 0 0 1 .047-.055c.394-.464.734-.863.984-1.199A36.221 36.221 0 0 1 8.25 11.56a34.056 34.056 0 0 1 5.79-5.274c.077-.058.163-.12.25-.183l.093-.075c.055-.043.11-.082.164-.125.047-.039.098-.074.144-.113.047-.039.098-.078.149-.117l.105-.082c.047-.04.09-.074.137-.11l.004-.003c.027-.02.055-.043.082-.067 1.36-1.078 3.219-2.562 4.555-2.586.52-.011.859.16 1.078.516.363.59.262 1.578-.04 2.152a30.954 30.954 0 0 1-2.042 3.324h-.004c-.246.352-.504.704-.77 1.051 0 .004-.004.008-.008.012-.25.328-.511.656-.777.98-.02.028-.039.051-.058.079a39.238 39.238 0 0 1-1.762 1.988c-.031.031-.074.078-.13.133l-.015.015a104.092 104.092 0 0 1-3.973 3.688 82.054 82.054 0 0 1-2.585 2.203l-.055.043c-4.102 3.324-4.805 3-4.844 2.98zm17.7-9.73a.41.41 0 0 0-.672-.129.795.795 0 0 1-1.098 0c-.605-.61-1.664-.61-2.27 0a.41.41 0 0 0 0 .586.41.41 0 0 0 .586 0 .795.795 0 0 1 1.098 0 1.587 1.587 0 0 0 1.684.37c-.125.153-.25.302-.371.438-.317.375-.594.7-.797.973-1.7 2.266-3.774 4.309-5.996 5.899-.27.19-.582.44-.915.703-1.085.867-2.574 2.05-3.624 2.07-.391.012-.641-.117-.801-.375-.278-.453-.2-1.215.035-1.656.25-.477.539-.973.906-1.555a80.778 80.778 0 0 0 2.656-2.27 34.26 34.26 0 0 0 1.91-1.644c.012.016.016.031.028.043a.415.415 0 0 0 .59 0c.3-.3.793-.305 1.093 0 .305.305.707.473 1.137.473.43 0 .832-.168 1.137-.473a.422.422 0 0 0 0-.59.422.422 0 0 0-.59 0 .79.79 0 0 1-1.094 0 1.612 1.612 0 0 0-1.265-.457c.265-.266.53-.539.789-.812.164-.165.285-.286.347-.352.313-.328.614-.656.907-.988.047-.051.09-.106.132-.157.258-.293.512-.59.758-.886l.07-.086c.27-.328.532-.66.786-.992v-.004c.273-.356.535-.715.789-1.078l.12-.137c1.817-1.328 2.333-1.317 2.411-1.309l.106.07c.539.243.843.56.933.97.207.913-.617 2.206-1.515 3.355zm0 0"/>
</svg>
